icons/1_Primary/Unstoppable Domains.svg

<svg width="1024" height="1024" viewBox="0 0 1024 1024" fill="none" xmlns="http://www.w3.org/2000/svg">
<g clip-path="url(#clip0_2_3795)">
<path d="M512 1024C794.77 1024 1024 794.77 1024 512C1024 229.23 794.77 0 512 0C229.23 0 0 229.23 0 512C0 794.77 229.23 1024 512 1024Z" fill="#728DBE"/>
<path d="M784.35 265.52V247.52L676.6 328.37V238.59L550.88 307.73V422.67L425.16 517V376.87L317.4 436.14V579.82C317.4 585.673 317.677 591.456 318.23 597.17L209.85 678.44L209.64 678.59H209.71L325 631.73C337.438 673.003 364.304 708.426 400.694 731.534C437.084 754.641 480.57 763.891 523.214 757.595C565.859 751.299 604.817 729.877 632.976 697.24C661.136 664.602 676.619 622.926 676.6 579.82V488.89L784.36 445.12V427.12L676.6 474.3V459.7L784.36 409.2V391.2L676.6 445.11V430.53L784.36 373.28V355.28L676.6 415.94V401.34L784.36 337.34V319.34L676.6 386.74V372.15L784.36 301.44V283.44L676.6 357.56V343L784.35 265.52ZM322.43 622.2L209.93 678.44L321.7 619.07C321.94 620.117 322.183 621.16 322.43 622.2ZM318.56 600.31C318.68 601.357 318.807 602.403 318.94 603.45L209.94 678.35L318.56 600.31ZM209.74 678.54H209.69H209.75L209.85 678.47L319.37 606.6C319.523 607.646 319.69 608.69 319.87 609.73L209.76 678.52L320.43 612.82C320.623 613.867 320.827 614.91 321.04 615.95L209.79 678.52L323.23 625.36C323.51 626.42 323.797 627.477 324.09 628.53L209.74 678.54ZM550.87 579.82C550.889 595.562 545.001 610.739 534.37 622.349C523.739 633.959 509.138 641.157 493.455 642.521C477.772 643.885 462.148 639.314 449.672 629.713C437.197 620.112 428.778 606.179 426.08 590.67L550.88 540L550.87 579.82ZM550.87 529.3L425.31 584.23C425.21 582.77 425.16 581.3 425.16 579.82V577.57L550.88 518.64L550.87 529.3ZM550.87 507.97L425.16 570.83V564.1L550.88 497.32L550.87 507.97ZM550.87 486.65L425.16 557.37V550.63L550.88 476L550.87 486.65ZM550.87 465.31L425.16 543.89V537.16L550.88 454.65L550.87 465.31ZM550.87 443.98L425.16 530.42V523.69L550.88 433.33L550.87 443.98Z" fill="white"/>
</g>
<defs>
<clipPath id="clip0_2_3795">
<rect width="1024" height="1024" fill="white"/>
</clipPath>
</defs>
</svg>

<svg xmlns="http://www.w3.org/2000/svg" viewBox="0 0 1024 1024">
   <circle cx="512" cy="512" r="512" style="fill:#4c47f7"/>
   <path d="M784.35 265.52v-18L676.6 328.37v-89.78l-125.72 69.14v114.94L425.16 517V376.87L317.4 436.14v143.68q0 8.78.83 17.35l-108.38 81.27-.21.15h.07L325 631.73a179.62 179.62 0 0 0 351.6-51.91v-90.93l107.76-43.77v-18L676.6 474.3v-14.6l107.76-50.5v-18L676.6 445.11v-14.58l107.76-57.25v-18L676.6 415.94v-14.6l107.76-64v-18l-107.76 67.4v-14.59l107.76-70.71v-18L676.6 357.56V343ZM322.43 622.2l-112.5 56.24 111.77-59.37q.36 1.57.73 3.13Zm-3.87-21.89q.18 1.57.38 3.14l-109 74.9Zm-108.82 78.23h-.05.06l.1-.07 109.52-71.87q.23 1.57.5 3.13l-110.11 68.79 110.67-65.7q.29 1.57.61 3.13l-111.25 62.57 113.44-53.16q.42 1.59.86 3.17Zm341.13-98.72a62.86 62.86 0 0 1-124.79 10.85L550.88 540Zm0-50.52-125.56 54.93q-.15-2.19-.15-4.41v-2.25l125.72-58.93Zm0-21.33-125.71 62.86v-6.73l125.72-66.78Zm0-21.32-125.71 70.72v-6.74L550.88 476Zm0-21.34-125.71 78.58v-6.73l125.72-82.51Zm0-21.33-125.71 86.44v-6.73l125.72-90.36Z" style="fill:#fff"/>
</svg>
